X:1
T:Nettleham, CMD
T:Nettleham, CMD
T:George John Bennett (1863-1930)
T:Public Domain Courtesy of the Cyber Hymnal™
C:George John Bennett (1863-1930)
Z:Public Domain
Z:Courtesy of the Cyber Hymnal™
%%score ( 1 2 ) ( 3 4 )
L:1/8
Q:1/4=110
M:4/4
K:Eb
V:1 treble 
V:2 treble 
V:3 bass 
V:4 bass 
V:1
 [GB]2 | [GB]2 [GB]2 [EG]2 [GB]2 | [FA]3 F F2 [FA]2 | [EG]2 E2 [CF]2 [B,D]2 | [B,E]6 ([EB][EB]) | %5
 [B,B]2 [DB]2 [EG]2 [FB]2 | [EB]3 [E=A] [EA]2 [EF]2 | [Dd]2 [DB]2 [Gc]2 [E=A]2 | [DB]6 [DB]2 | %9
 [DF]2 (GA) [EB]2 [EB]2 | [Dd]3 [Ec] [FB]2 [EB]2 | [Ec]2 [Fc]2 [FG]2 [=EB]2 | [FA]6 FF | %13
 [EG]2 [EG]2 [FB]2 [FB]2 | e2 (d[Ec]) [EB]2 [_DG]2 | [CA]2 C2 [B,D]2 [B,F]2 | [B,E]6 |] %17
V:2
 x2 | x8 | x8 | x8 | x8 | x8 | x8 | x8 | x8 | x2 D2 x4 | x8 | x8 | x6 FF | x8 | E3 x5 | x2 C2 x4 | %16
 x6 |] %17
V:3
 [E,B,]2 | [E,B,]2 [E,B,]2 [E,B,]2 [E,B,]2 | [E,C]3 [D,B,] [D,B,]2 [D,B,]2 | %3
 [E,B,]2 [G,,B,]2 [A,,A,]2 [B,,A,]2 | [E,G,]6 ([E,G,][E,G,]) | G,2 [F,A,]2 [E,B,]2 [D,B,]2 | %6
 [D,C]3 [F,C] [F,C]2 [F,=A,]2 | B,2 [G,D]2 [E,C]2 [F,C]2 | [B,,B,]6 [B,,B,]2 | %9
 [A,B,]2 [A,B,]2 [G,B,]2 [G,B,]2 | [F,A,]3 [F,A,] [D,A,]2 [E,G,]2 | %11
 [A,,A,]2 [A,,C]2 [B,,_D]2 [B,,C]2 | [F,C]6 [D,B,][D,B,] | [E,B,]2 [E,B,]2 [D,B,]2 [D,B,]2 | %14
 G,3 [A,,A,] [G,,B,]2 [E,B,]2 | [A,,A,]2 [A,,A,]2 [B,,A,]2 [B,,A,]2 | [E,G,]6 |] %17
V:4
 x2 | x8 | x8 | x8 | x8 | G,2 x6 | x8 | B,2 x6 | x8 | x8 | x8 | x8 | x8 | x8 | C,2 B,, x5 | x8 | %16
 x6 |] %17

